source/img/icons-sprite/footer-fb.svg

<svg width="44" height="43" viewBox="0 0 44 43" fill="none" xmlns="http://www.w3.org/2000/svg">
<g clip-path="url(#clip0)">
<path d="M3.66667 14.2331C10.1229 3.88647 20.7789 -0.507346 31.2933 1.29162C34.1316 1.76091 37.0343 2.85594 39.2275 5.12419C42.0012 7.93996 43.4203 12.3983 43.8719 16.7784C44.3879 22.1752 43.3559 27.9632 40.5821 32.1869C37.6149 36.6452 33.035 39.0699 28.5196 40.6342C25.5524 41.651 22.4561 42.355 19.4243 42.746C13.9413 43.45 7.94228 42.9024 3.87843 38.3659C1.2982 35.472 -0.12092 31.2483 0.00809144 27.1028C0.137103 22.9574 1.39171 17.8789 3.66667 14.2331Z" fill="#5674DE"/>
<path d="M20.0971 33.0087H24.5534V21.8688H27.6813L28.0241 18.1271H24.5534C24.5534 18.1271 24.5534 16.724 24.5534 16.0011C24.5534 15.1082 24.7248 14.7681 25.5817 14.7681C26.2673 14.7681 28.0241 14.7681 28.0241 14.7681V10.9414C28.0241 10.9414 25.4532 10.9414 24.9389 10.9414C21.5968 10.9414 20.0971 12.3871 20.0971 15.1934C20.0971 17.6169 20.0971 18.1697 20.0971 18.1697H17.7832V21.9538H20.0971V33.0087Z" fill="white"/>
</g>
<defs>
<clipPath id="clip0">
<rect width="44" height="42.101" fill="white" transform="translate(0 0.898926)"/>
</clipPath>
</defs>
</svg>

<svg width="44" height="43" fill="none" xmlns="http://www.w3.org/2000/svg"><g clip-path="url(#clip0)"><path d="M3.667 14.233C10.123 3.886 20.779-.507 31.293 1.292c2.839.469 5.741 1.564 7.934 3.832 2.774 2.816 4.193 7.274 4.645 11.654.516 5.397-.516 11.185-3.29 15.409-2.967 4.458-7.547 6.883-12.062 8.447a46.673 46.673 0 0 1-9.096 2.112c-5.483.704-11.482.156-15.546-4.38-2.58-2.894-3.999-7.118-3.87-11.263.13-4.146 1.384-9.224 3.659-12.87z" fill="#5674DE"/><path d="M20.097 33.009h4.456v-11.14h3.128l.343-3.742h-3.47v-2.126c0-.893.17-1.233 1.028-1.233h2.442v-3.827H24.94c-3.342 0-4.842 1.446-4.842 4.252v2.977h-2.314v3.784h2.314v11.055z" fill="#fff"/></g><defs><clipPath id="clip0"><path fill="#fff" transform="translate(0 .899)" d="M0 0h44v42.101H0z"/></clipPath></defs></svg>
